build/img-landing/svg/cap12.svg

<svg width="74" height="74" viewBox="0 0 74 74" fill="none" xmlns="http://www.w3.org/2000/svg">
<path d="M68.0276 31.0354C65.1433 31.0354 62.7398 33.0894 62.1862 35.8134H48.872C48.639 33.4099 47.6776 31.2248 46.2354 29.4622L55.6457 20.052C56.6362 20.7075 57.787 21.0425 58.9378 21.0425C60.4673 21.0425 61.9969 20.4599 63.1622 19.2945C65.4929 16.9638 65.4929 13.1764 63.1622 10.8602C60.8315 8.52954 57.0441 8.52954 54.728 10.8602C52.6886 12.8996 52.4409 16.0606 53.9705 18.3768L44.5602 27.787C42.7976 26.3449 40.598 25.3835 38.2091 25.1504V11.8217C40.9185 11.2681 42.9724 8.85001 42.9724 5.98033C42.9724 2.6882 40.2921 0.00788498 37 0.00788498C33.7079 0.00788498 31.0276 2.6882 31.0276 5.98033C31.0276 8.86458 33.0815 11.2681 35.8055 11.8217V25.1358C33.402 25.3689 31.2169 26.3303 29.4543 27.7725L20.0295 18.3622C21.5591 16.0461 21.3114 12.8851 19.272 10.8457C16.9413 8.51497 13.1539 8.51497 10.8378 10.8457C8.50709 13.1764 8.50709 16.9638 10.8378 19.2799C12.0031 20.4453 13.5327 21.028 15.0622 21.028C16.213 21.028 17.3638 20.6929 18.3543 20.0374L27.7646 29.4477C26.3224 31.2103 25.361 33.4099 25.128 35.7988H11.8138C11.2602 33.0894 8.84213 31.0354 5.97244 31.0354C2.68032 31.0354 0 33.7158 0 37.0079C0 40.3 2.68032 42.9803 5.97244 42.9803C8.85669 42.9803 11.2602 40.9264 11.8138 38.2024H25.128C25.361 40.6059 26.3224 42.791 27.7646 44.5536L18.3543 53.9638C16.0382 52.4343 12.8772 52.6819 10.8378 54.7213C8.50709 57.052 8.50709 60.8394 10.8378 63.1555C11.9594 64.2772 13.4598 64.9036 15.0622 64.9036C16.65 64.9036 18.1504 64.2772 19.2866 63.1555C21.326 61.1162 21.5736 57.9551 20.0441 55.639L29.4543 46.2288C31.2169 47.6709 33.4165 48.6323 35.8055 48.8654V62.1796C33.0815 62.7331 31.0276 65.1512 31.0276 68.0209C31.0276 71.313 33.7079 73.9933 37 73.9933C40.2921 73.9933 42.9724 71.313 42.9724 68.0209C42.9724 65.1366 40.9185 62.7331 38.1945 62.1796V48.8654C40.598 48.6323 42.7831 47.6709 44.5457 46.2288L53.9559 55.639C52.4264 57.9551 52.674 61.1162 54.7134 63.1555C55.835 64.2772 57.3354 64.9036 58.9378 64.9036C60.5256 64.9036 62.026 64.2772 63.1622 63.1555C65.4929 60.8248 65.4929 57.0374 63.1622 54.7213C61.1228 52.6819 57.9618 52.4343 55.6457 53.9638L46.2354 44.5536C47.6776 42.791 48.639 40.5914 48.872 38.2024H62.1862C62.7398 40.9264 65.1579 42.9803 68.0276 42.9803C71.3197 42.9803 74 40.3 74 37.0079C74 33.7158 71.3197 31.0354 68.0276 31.0354ZM56.4177 12.5354C57.1169 11.8362 58.0346 11.4866 58.9524 11.4866C59.8701 11.4866 60.7878 11.8362 61.487 12.5354C62.8854 13.9339 62.8854 16.2063 61.487 17.6047C60.0886 19.0032 57.8161 19.0032 56.4177 17.6047C55.0193 16.2063 55.0193 13.9339 56.4177 12.5354ZM17.5969 17.5902C16.1984 18.9886 13.926 18.9886 12.5276 17.5902C11.1291 16.1917 11.1291 13.9193 12.5276 12.5209C13.2268 11.8217 14.1445 11.4721 15.0622 11.4721C15.9799 11.4721 16.8976 11.8217 17.5969 12.5209C18.9953 13.9193 18.9953 16.1917 17.5969 17.5902ZM5.97244 40.5914C3.99134 40.5914 2.38898 38.989 2.38898 37.0079C2.38898 35.0268 3.99134 33.4244 5.97244 33.4244C7.95354 33.4244 9.55591 35.0268 9.55591 37.0079C9.55591 38.989 7.93898 40.5914 5.97244 40.5914ZM17.5823 61.4803C16.2276 62.8351 13.8677 62.8351 12.513 61.4803C11.1146 60.0819 11.1146 57.8095 12.513 56.411C13.2122 55.7118 14.1299 55.3622 15.0476 55.3622C15.9654 55.3622 16.8831 55.7118 17.5823 56.411C18.9807 57.8095 18.9807 60.0819 17.5823 61.4803ZM56.4032 56.4256C57.1024 55.7264 58.0201 55.3768 58.9378 55.3768C59.8555 55.3768 60.7732 55.7264 61.4724 56.4256C62.8709 57.824 62.8709 60.0965 61.4724 61.4949C60.1177 62.8496 57.7579 62.8496 56.4032 61.4949C55.0047 60.0965 55.0047 57.824 56.4032 56.4256ZM33.4165 5.98033C33.4165 3.99922 35.0189 2.39686 37 2.39686C38.9811 2.39686 40.5835 3.99922 40.5835 5.98033C40.5835 7.96143 38.9811 9.56379 37 9.56379C35.0189 9.54922 33.4165 7.94686 33.4165 5.98033ZM40.5835 68.0354C40.5835 70.0166 38.9811 71.6189 37 71.6189C35.0189 71.6189 33.4165 70.0166 33.4165 68.0354C33.4165 66.0543 35.0189 64.452 37 64.452C38.9811 64.4666 40.5835 66.0689 40.5835 68.0354ZM37 46.5492C31.7413 46.5492 27.4587 42.2666 27.4587 37.0079C27.4587 31.7492 31.7413 27.4666 37 27.4666C42.2587 27.4666 46.5413 31.7492 46.5413 37.0079C46.5413 42.2666 42.2587 46.5492 37 46.5492ZM68.0276 40.5914C66.0465 40.5914 64.4441 38.989 64.4441 37.0079C64.4441 35.0268 66.0465 33.4244 68.0276 33.4244C70.0087 33.4244 71.611 35.0268 71.611 37.0079C71.611 38.989 70.0087 40.5914 68.0276 40.5914Z" fill="#E30613"/>
</svg>

<svg width="74" height="74" viewBox="0 0 74 74" fill="none" xmlns="http://www.w3.org/2000/svg"><path d="M68.028 31.035c-2.885 0-5.288 2.054-5.842 4.778H48.872a11.822 11.822 0 0 0-2.637-6.35l9.41-9.411a5.972 5.972 0 0 0 7.517-.758c2.33-2.33 2.33-6.118 0-8.434-2.33-2.33-6.118-2.33-8.434 0-2.04 2.04-2.287 5.2-.758 7.517l-9.41 9.41a11.87 11.87 0 0 0-6.35-2.637V11.822c2.709-.554 4.762-2.972 4.762-5.842A5.98 5.98 0 0 0 37 .008a5.98 5.98 0 0 0-5.972 5.972c0 2.885 2.053 5.288 4.778 5.842v13.314a11.823 11.823 0 0 0-6.352 2.637l-9.425-9.41c1.53-2.317 1.282-5.478-.757-7.517-2.33-2.331-6.118-2.331-8.434 0-2.33 2.33-2.33 6.118 0 8.434a5.972 5.972 0 0 0 7.516.758l9.41 9.41a11.87 11.87 0 0 0-2.636 6.35H11.814c-.554-2.709-2.972-4.763-5.842-4.763A5.98 5.98 0 0 0 0 37.008a5.98 5.98 0 0 0 5.972 5.972c2.885 0 5.288-2.054 5.842-4.778h13.314a11.822 11.822 0 0 0 2.637 6.352l-9.41 9.41c-2.317-1.53-5.478-1.282-7.517.757-2.33 2.331-2.33 6.118 0 8.435a5.938 5.938 0 0 0 4.224 1.748 5.989 5.989 0 0 0 4.225-1.748c2.039-2.04 2.287-5.2.757-7.517l9.41-9.41a11.87 11.87 0 0 0 6.352 2.636V62.18c-2.724.553-4.778 2.971-4.778 5.84A5.98 5.98 0 0 0 37 73.994a5.98 5.98 0 0 0 5.972-5.972c0-2.884-2.053-5.288-4.778-5.841V48.865a11.824 11.824 0 0 0 6.352-2.636l9.41 9.41c-1.53 2.316-1.282 5.477.757 7.517a5.938 5.938 0 0 0 4.225 1.748 5.989 5.989 0 0 0 4.224-1.748c2.33-2.331 2.33-6.119 0-8.435-2.04-2.04-5.2-2.287-7.516-.757l-9.41-9.41a11.87 11.87 0 0 0 2.636-6.352h13.314c.554 2.724 2.972 4.778 5.842 4.778A5.98 5.98 0 0 0 74 37.008a5.98 5.98 0 0 0-5.972-5.973zm-11.61-18.5a3.573 3.573 0 0 1 2.534-1.048c.918 0 1.836.35 2.535 1.048a3.587 3.587 0 0 1 0 5.07 3.587 3.587 0 0 1-5.07 0 3.587 3.587 0 0 1 0-5.07zM17.597 17.59a3.587 3.587 0 0 1-5.07 0 3.587 3.587 0 0 1 0-5.07 3.581 3.581 0 0 1 2.535-1.048c.918 0 1.836.35 2.535 1.049a3.587 3.587 0 0 1 0 5.07zM5.972 40.591a3.58 3.58 0 0 1-3.583-3.583 3.58 3.58 0 0 1 3.583-3.584 3.58 3.58 0 0 1 3.584 3.584 3.59 3.59 0 0 1-3.584 3.583zm11.61 20.89c-1.354 1.354-3.714 1.354-5.069 0a3.587 3.587 0 0 1 0-5.07c.7-.7 1.617-1.049 2.535-1.049.917 0 1.835.35 2.534 1.049a3.587 3.587 0 0 1 0 5.07zm38.821-5.055c.7-.7 1.617-1.05 2.535-1.05a3.587 3.587 0 0 1 2.535 6.118c-1.355 1.356-3.715 1.356-5.07 0a3.587 3.587 0 0 1 0-5.068zM33.417 5.98A3.58 3.58 0 0 1 37 2.397a3.58 3.58 0 0 1 3.584 3.583A3.58 3.58 0 0 1 37 9.564c-1.981-.015-3.584-1.617-3.584-3.584zm7.166 62.055A3.58 3.58 0 0 1 37 71.62a3.58 3.58 0 0 1-3.584-3.584A3.58 3.58 0 0 1 37 64.452c1.981.015 3.584 1.617 3.584 3.583zM37 46.55c-5.259 0-9.541-4.282-9.541-9.541S31.74 27.467 37 27.467s9.541 4.282 9.541 9.54c0 5.26-4.282 9.542-9.541 9.542zm31.028-5.958a3.581 3.581 0 0 1-3.584-3.583 3.581 3.581 0 0 1 3.584-3.584 3.58 3.58 0 0 1 3.583 3.584 3.58 3.58 0 0 1-3.583 3.583z" fill="#E30613"/></svg>
